public/images/mobile/project/like-not.svg

<svg width="16" height="16" viewBox="0 0 16 16" fill="none" xmlns="http://www.w3.org/2000/svg">
<path d="M10.8151 2.33398C9.46895 2.33398 8.35218 3.35184 8.00371 3.96075C7.64847 3.35184 6.52446 2.33398 5.18551 2.33398C3.0744 2.33398 1.66699 4.3697 1.66699 6.40049C1.66699 7.71358 2.27439 8.62696 2.71979 9.29673C3.76237 10.878 5.91998 12.5187 7.1134 13.3559L7.16874 13.3948C7.40629 13.5729 7.69253 13.6673 7.99682 13.6673C8.28342 13.6673 8.56325 13.5776 8.80613 13.4084L8.82169 13.3973C8.83155 13.39 8.85103 13.3763 8.87918 13.3566C10.0722 12.5177 12.2306 10.875 13.2829 9.29375C13.7263 8.62684 14.3337 7.71358 14.3337 6.40038C14.3337 4.3697 12.9263 2.33398 10.8151 2.33398Z" stroke="#1B1A1D" stroke-width="1.5" stroke-linejoin="round"/>
</svg>

<svg xmlns="http://www.w3.org/2000/svg" width="16" height="16" fill="none"><path stroke="#1B1A1D" stroke-linejoin="round" stroke-width="1.5" d="M10.815 2.334c-1.346 0-2.463 1.018-2.811 1.627-.356-.61-1.48-1.627-2.818-1.627-2.112 0-3.519 2.036-3.519 4.066 0 1.314.607 2.227 1.053 2.897 1.042 1.581 3.2 3.222 4.393 4.059l.056.039c.237.178.524.272.828.272.286 0 .566-.09.81-.259l.015-.01.057-.041c1.193-.84 3.352-2.482 4.404-4.063.443-.667 1.05-1.58 1.05-2.894 0-2.03-1.407-4.066-3.518-4.066Z"/></svg>
